X:1
T:Amante Abbandonato-Lusinghiero
T:Giovanni Stefani
T:Source : Affetti amorosi-Canzonette ad une voce sola---Venetia---A.Vincenti---1621. Editor : André Vierendeels (20/11/15).
T:Notes : Original clefs : C1, F4 Alfabetto et intavolatura per chitarra Spagnola Terza impressione (first print 1618)
T:Lusinghiero infido-Amante abbandonato
C:Giovanni Stefani
%%score 1 { ( 2 3 ) | 4 }
L:1/8
Q:1/4=100
M:6/4
K:F
V:1 treble nm="Soprano" snm="S"
V:2 treble nm="BC" snm="BC"
V:3 treble 
V:4 bass 
V:1
 G2 A2 B2 A2 B2 G2 | A8 G4 | F6 G2 G4 | F12 :: A2 B2 c2 B2 c2 A2 | B8 B4 | A4 GA B2 B3 A- | B12 :: %8
w: Lu- sin- ghie- ro'in- fi- do'a-|mo- re,|che n'al- let-|ti,|l'al- m'a- man- te'a- man- te'il|co- re,|ai di- * * let- ti,|_|
w: Non fug- gir, ma con tua|fa- ce,|di- vo splen-|di,|ec- co'il bel fo- co vi-|va- ce,|l'al- ma'in- * * cen- di,|_|
w: Nu- do'ar- cier' se d'au- re'o|stra- le,|dol- ce pia-|ga,|non al cor pe- na mor-|ta- le,|pe- na _ _ va- ga,|_|
w: Cru- del- is- si- mo ti-|ran- no,|tuoi de- si-|ri,|son tor- men- to'al cru- do'af-|fan- no,|rei mar- * * ti- ri,|_|
w: Par- go- let- to'a- ma- to|nu- me,|deh pie- to-|so,|splen- di'ho- mai tuo va- go|lu- me,|glo- ri- * * o- so,|_|
 d2 c2 B2 A2 G2 F2 | G8 G4 | GA B4 B2 A4 | G12 :| %12
w: deh com' hor t'a- scon- di'e|fug- gi,|ah- * i mi strug-|gi.|
w: ch'a- mo- ro- s'ar- den- d'o-|gn'ho- ra,|dol- * * ce mo-|ra.|
w: on- de poi se- co- ri'uc-|ci- di,|che _ _ ten ri-|di.|
w: per cui pro- va pe- ne|tan- te,|co- * * re'a- man-|te.|
w: ch'al se- ren di tuo splen-|do- re,|vi- * * ve'il co-|re.|
V:2
 B12 | A8 B4 | A4 B4 G4 | A12 :: c12 | B8 F4 | A4 c4 c4 | d12 :: B12 | B12 | G2 B2 _e4 d4 | =B12 :| %12
V:3
 D12 | F8 D4 | F4 D4 E4 | C12 :: A12 | D12 | F4 G4 F4 | F12 :: F8 D4 | _E12 | G2 D2 G4 ^F4 | G12 :| %12
V:4
 G,,12 | F,2 G,2 A,2 F,2 G,2 E,2 | F,2 A,,2 B,,2 D,2 C,4 | F,,12 :: F,,12 | %5
 B,,2 C,2 D,2 B,,2 D,2 E,2 | F,2 D,2 _E,2 G,2 F,4 | B,,12 :: B,,8 B,,4 | %9
 G,2 F,2 _E,2 D,2 C,2 B,,2 | C,2 G,,2 C,2 C,2 D,4 | G,,12 :| %12

